X: 15
T:Ffarwel Ir Marian
% Nottingham Music Database
P:AAB
S:JP/AF 85
M:3/4
L:1/4
K:Dm
P:A
A|"Dm"A/2d/2A/2=B/2^c/2d/2|"A"eA2|"Gm"f/2g/2f/2e/2d/2e/2|"A7"^cA2|\
"Dm"A/2d/2A/2G/2A/2F/2|"Gm"B/2d/2B/2A/2B/2G/2|"Dm/a"F/2A/2F"A7"E|"Dm"D2:|
P:B
D|"F"Ac3/2A/2|"C"G"F"A2|"F"Ac3/2d/2|"Am"eA2|"Dm"fg3/2f/2|"Am"fed|"E7"c/2e/2c=B\
|"Am"A2"A7"A|"Dm"A/2d/2A/2=B/2^c/2d/2|
"A"eA2|"Gm"f/2g/2f/2e/2d/2e/2|"A7"^cA2|"Dm"A/2d/2A/2G/2A/2F/2|\
"Gm"B/2d/2B/2A/2B/2G/2|"Dm/a"F/2A/2F"A7"E|"Dm"D2||<end>
<start>
